!!!SOCIAL_FUNCTION:	social gatherings
!!!PDT:	1939
!!!OTL: No__88_Courtesy_Song_(b).krn
!!!LANG: Non-Tone
!!!LING_GROUP: Wakashan
!!!REG: Pacific Northwest
**kern
*staff1
=1-
*clefF4
*k[b-e-a-]
*M2/4
4..e-\
16B-\
=2
[2e-\
=3
2e-\]
=4
8g\L
8f\J
8g\L
8f\J
=5
4.e-\
8B-\
=6
8e-\L
8f\J
8.e-\L
16B-\Jk
=7
2e-\
=8
4e-\
8r
8f\
=9
4.e-\
8e-\
=10
8c\L
[8B-\J
8B-\L]
8F\J
=11
4.B-\
16G\
16r
=12
8F\L
8E-\J
8.F\L
16F\Jk
=13
16B-\LK
[8.G\J
8G\]
8r
=14
16F\LK
8.E-\J
8.E-\L
16E-\Jk
=15
2E-\
=16
2E-\
=17
4E-\
8r
16r
16f\
=18
4..e-\
16B-\
=19
2e-\
=20
4e-\
8r
8e-\
=21||
*M3/4
4.g\
8f\
8g\L
8f\J
=22||
*M2/4
2e-\
=23
4f\
8.e-\L
16B-\Jk
=24
2e-\
=25
4e-\
8r
8f\
=26
16f\LK
8.e-\J
8.e-\L
16c\Jk
=27
4B-\
12B-\L
12G\
12F\J
=28
8A-\L
16B-\L
16B-\JJ
8.A-\L
16F\Jk
=29
4E-\
8F\L
16.F\L
32A-\JJk
=30
4..G\
16F\
=31
4E-\
4r
=32
4F\
4E-\
=33
4E-\
4r
=34
4E-\
4r
=35
4E-\
4r
==
*-
